app/images/warning.svg

<svg xmlns="http://www.w3.org/2000/svg" viewBox="0 0 511.999 511.999"><path d="M16.242 429.476l216.09-374.28c10.518-18.22 36.814-18.22 47.333 0l216.09 374.28c10.52 18.22-2.63 40.99-23.665 40.99H39.908c-21.036 0-34.185-22.77-23.666-40.99z" fill="#F5C525"/><g fill="#EFEFEF"><path d="M256 322.45c-14.173 0-25.66-11.488-25.66-25.66V172.87c0-14.172 11.487-25.66 25.66-25.66 14.17 0 25.66 11.488 25.66 25.66v123.92c0 14.172-11.49 25.66-25.66 25.66z"/><circle cx="256.001" cy="397.558" r="25.034"/></g><g fill="#231F20"><path d="M506.597 423.218l-216.09-374.28C283.303 36.46 270.403 29.013 256 29.013c-14.404 0-27.304 7.448-34.506 19.922L5.402 423.218c-7.202 12.475-7.202 27.37 0 39.845 7.202 12.475 20.103 19.922 34.507 19.922H472.09c14.405 0 27.305-7.448 34.507-19.922 7.2-12.475 7.2-27.37-.003-39.845zm-21.68 27.327c-1.286 2.227-5.108 7.405-12.826 7.405H39.91c-7.718 0-11.54-5.178-12.826-7.405-1.286-2.227-3.86-8.126 0-14.81l216.09-374.28c3.86-6.684 10.255-7.406 12.826-7.406s8.967.72 12.826 7.404l216.09 374.28c3.86 6.685 1.287 12.584.003 14.81z"/><path d="M256 134.692c-21.052 0-38.178 17.126-38.178 38.177v123.92c0 21.05 17.126 38.177 38.177 38.177s38.176-17.126 38.176-38.177V172.87c0-21.052-17.126-38.178-38.177-38.178zM269.14 296.79c0 7.247-5.896 13.143-13.143 13.143s-13.144-5.896-13.144-13.143V172.87c0-7.247 5.896-13.143 13.143-13.143s13.142 5.896 13.142 13.143v123.92zM256 360.002c-20.707 0-37.553 16.846-37.553 37.552s16.846 37.552 37.552 37.552 37.55-16.846 37.55-37.552-16.845-37.552-37.55-37.552zm0 50.07c-6.903 0-12.518-5.616-12.518-12.518 0-6.902 5.615-12.517 12.517-12.517s12.516 5.615 12.516 12.517c0 6.9-5.615 12.517-12.517 12.517z"/></g></svg>

<?xml version="1.0" encoding="iso-8859-1"?>
<!-- Generator: Adobe Illustrator 19.0.0, SVG Export Plug-In . SVG Version: 6.00 Build 0)  -->
<svg version="1.1" id="Layer_1" xmlns="http://www.w3.org/2000/svg" xmlns:xlink="http://www.w3.org/1999/xlink" x="0px" y="0px"
	 viewBox="0 0 511.999 511.999" style="enable-background:new 0 0 511.999 511.999;" xml:space="preserve">
<path style="fill:#F5C525;" d="M16.242,429.476L232.332,55.195c10.518-18.219,36.814-18.219,47.333,0l216.091,374.281
	c10.518,18.219-2.63,40.991-23.666,40.991H39.908C18.872,470.467,5.723,447.695,16.242,429.476z"/>
<g>
	<path style="fill:#EFEFEF;" d="M255.999,322.45L255.999,322.45c-14.172,0-25.66-11.488-25.66-25.66V172.87
		c0-14.172,11.488-25.66,25.66-25.66l0,0c14.172,0,25.66,11.488,25.66,25.66v123.92C281.659,310.962,270.171,322.45,255.999,322.45z
		"/>
	<circle style="fill:#EFEFEF;" cx="256.001" cy="397.558" r="25.034"/>
</g>
<g>
	<path style="fill:#231F20;" d="M506.597,423.218L290.506,48.937C283.304,36.462,270.404,29.014,256,29.014
		c-14.404,0-27.304,7.448-34.506,19.922L5.402,423.218c-7.202,12.475-7.202,27.37,0,39.845
		c7.202,12.475,20.103,19.922,34.507,19.922h432.183c14.405,0,27.305-7.448,34.507-19.922
		C513.799,450.588,513.799,435.692,506.597,423.218z M484.917,450.545c-1.286,2.227-5.108,7.405-12.826,7.405H39.908
		c-7.718,0-11.541-5.178-12.826-7.405c-1.286-2.227-3.859-8.126,0-14.81L243.172,61.454c3.859-6.683,10.255-7.405,12.826-7.405
		s8.967,0.722,12.826,7.405l216.091,374.281C488.775,442.419,486.201,448.318,484.917,450.545z"/>
	<path style="fill:#231F20;" d="M255.999,134.692c-21.051,0-38.177,17.126-38.177,38.177v123.92
		c0,21.051,17.126,38.178,38.177,38.178s38.177-17.126,38.177-38.177V172.87C294.176,151.818,277.05,134.692,255.999,134.692z
		 M269.142,296.79c0,7.247-5.896,13.143-13.143,13.143s-13.143-5.896-13.143-13.143V172.87c0-7.247,5.896-13.143,13.143-13.143
		s13.143,5.896,13.143,13.143V296.79z"/>
	<path style="fill:#231F20;" d="M255.999,360.002c-20.706,0-37.552,16.846-37.552,37.552c0,20.706,16.846,37.552,37.552,37.552
		s37.552-16.846,37.552-37.552C293.55,376.848,276.705,360.002,255.999,360.002z M255.999,410.071
		c-6.902,0-12.517-5.615-12.517-12.517c0-6.902,5.615-12.517,12.517-12.517s12.517,5.615,12.517,12.517
		C268.516,404.455,262.901,410.071,255.999,410.071z"/>
</g>
<g>
</g>
<g>
</g>
<g>
</g>
<g>
</g>
<g>
</g>
<g>
</g>
<g>
</g>
<g>
</g>
<g>
</g>
<g>
</g>
<g>
</g>
<g>
</g>
<g>
</g>
<g>
</g>
<g>
</g>
</svg>
